X: 22122
T: Kosher, The
R: reel
M: 4/4
K: Amixolydian
eAAB dcBA|eAAB degf|eAAB dcBA|(3BAG Bd gfed:|
|:ea2f gfed|eAAB degb|ea2f gfed|gBBc degd:|
|:ea2^g agef|=gfeg f/g/f/e/df|ea2^g agef|=gabg agfd:|
|:[M:7/8]eAA A2Bd|[M:6/8]Tc2A Tc2A|[M:4/4]cdec dc_B=F|
[M:7/8]eAA A2Bd|[M:6/8]Tc2A Tc2A|1 [M:4/4]cdec Td2cd:|2 [M:4/4]cdec d2d2||
|:[M:3/28]eac'|[M:9/8]Tb2e Tb2e Tb2e|[M:3/4]bc'd'c' bc'|
[M:3/28]eac'|[M:6/8]Tb2e Tb2e|1 [M:4/4]bc'd'b c'2c'2:|2 [M:4/4]bc'd'b a2a2||

